packages/web/src/assets/images/icons/notification.svg

<svg fill="none" height="20" viewBox="0 0 20 20" width="20" xmlns="http://www.w3.org/2000/svg"><g fill="#148751"><path d="m10 1.25c.3315 0 .6495.1317.8839.36612s.3661.55236.3661.88388v1.25h-2.5v-1.25c0-.33152.1317-.64946.36612-.88388s.55236-.36612.88388-.36612z"/><path d="m5 15h10v-6.25c0-1.32608-.5268-2.59785-1.4645-3.53553-.9376-.93769-2.2094-1.46447-3.5355-1.46447-1.32608 0-2.59785.52678-3.53553 1.46447-.93769.93768-1.46447 2.20945-1.46447 3.53553zm5-12.5c1.6576 0 3.2473.65848 4.4194 1.83058 1.1721 1.17211 1.8306 2.76182 1.8306 4.41942v7.5h-12.5v-7.5c0-1.6576.65848-3.24731 1.83058-4.41942 1.17211-1.1721 2.76182-1.83058 4.41942-1.83058z"/><path d="m1.875 15h16.25c.4167 0 .625.2083.625.625s-.2083.625-.625.625h-16.25c-.41667 0-.625-.2083-.625-.625s.20833-.625.625-.625zm6.875 2.5h2.5c0 .3315-.1317.6495-.3661.8839s-.5524.3661-.8839.3661c-.33152 0-.64946-.1317-.88388-.3661s-.36612-.5524-.36612-.8839z"/></g></svg>

<svg width="20" height="20" viewBox="0 0 20 20" fill="none" xmlns="http://www.w3.org/2000/svg">
    <path d="M10 1.25C10.3315 1.25 10.6495 1.3817 10.8839 1.61612C11.1183 1.85054 11.25 2.16848 11.25 2.5V3.75H8.75V2.5C8.75 2.16848 8.8817 1.85054 9.11612 1.61612C9.35054 1.3817 9.66848 1.25 10 1.25Z" fill="#148751"/>
    <path d="M5 15H15V8.75C15 7.42392 14.4732 6.15215 13.5355 5.21447C12.5979 4.27678 11.3261 3.75 10 3.75C8.67392 3.75 7.40215 4.27678 6.46447 5.21447C5.52678 6.15215 5 7.42392 5 8.75V15ZM10 2.5C11.6576 2.5 13.2473 3.15848 14.4194 4.33058C15.5915 5.50269 16.25 7.0924 16.25 8.75V16.25H3.75V8.75C3.75 7.0924 4.40848 5.50269 5.58058 4.33058C6.75269 3.15848 8.3424 2.5 10 2.5Z" fill="#148751"/>
    <path d="M1.875 15H18.125C18.5417 15 18.75 15.2083 18.75 15.625C18.75 16.0417 18.5417 16.25 18.125 16.25H1.875C1.45833 16.25 1.25 16.0417 1.25 15.625C1.25 15.2083 1.45833 15 1.875 15ZM8.75 17.5H11.25C11.25 17.8315 11.1183 18.1495 10.8839 18.3839C10.6495 18.6183 10.3315 18.75 10 18.75C9.66848 18.75 9.35054 18.6183 9.11612 18.3839C8.8817 18.1495 8.75 17.8315 8.75 17.5Z" fill="#148751"/>
</svg>
